!!!COM: Beethoven, Ludwig van
!!!CDT: 1770///-1827///
!!!OTL: Six Variations on a Swiss Song
!!!OMV: Theme
!!!OMD: Andante con moto
!!!OPS: WO 64
!!!ODT: ~1791///
!!!AGN: Variations
**kern	**dynam	**kern	**dynam
*Ipiano	*Ipiano	*Ipiano	*Ipiano
*clefF4	*clefF4	*clefG2	*clefG2
*k[b-]	*k[b-]	*k[b-]	*k[b-]
*met(C)	*met(C)	*met(C)	*met(C)
*M4/4	*M4/4	*M4/4	*M4/4
*MM120	*MM120	*MM120	*MM120
4r	.	(4c'/	p
=2	=2	=2	=2
(4F'\	.	4f'/	.
4E'\	.	4g'/	.
4F'\	.	4a/	.
4D'\)	.	4f'/)	.
=3	=3	=3	=3
(2C'/	.	(2cc'\	.
2CC'/)	.	2g'/)	.
=4	=4	=4	=4
2.FF/	.	2.f/	.
(4F'\	.	(4cc'\	.
=5	=5	=5	=5
4E'\	.	4cc'\	.
4D'\	.	4dd'\	.
4C'/	.	4ee'\	.
4E'\)	.	4cc'\	.
=6	=6	=6	=6
(2D'\	.	(2ff'\)	.
2G'\)	.	2dd'\)	.
=7	=7	=7	=7
2.C/	.	2.cc\	.
4r	.	(4cc'\	mf
=8	=8	=8	=8
4r	.	4ff'^\	.
(4c'\	.	4ee'\	.
4B-'\	.	4dd'\	.
4A'\)	.	4cc'\)	.
=9	=9	=9	=9
4r	.	(4ff'^\	.
4c'\)	.	4ee'\	.
(4B-'\	.	4dd'\)	.
(8A\L	.	(4c/	p
8G\J)	.	.	.
=10	=10	=10	=10
(4F\	.	4f'/	.
4E'\	.	4g'/	.
4F'\	.	4a'/	.
(4D'\)	.	4b-'/)	.
=11	=11	=11	=11
2C'/	.	(2cc'\	.
2CC'/)	.	2g'/)	.
=12	=12	=12	=12
2.FF/	.	2.f/	.
==	==	==	==
*-	*-	*-	*-
!!!ENC: Craig Stuart Sapp
!!!END: 2004/06/07/
